Hatter-kde/actions/24/text_remove_kerns.svg

<svg xmlns="http://www.w3.org/2000/svg" viewBox="0 0 24 24">
  <defs id="defs3051">
    <style type="text/css" id="current-color-scheme">
      .ColorScheme-Text {
        color:#363636;
      }
      .ColorScheme-NegativeText {
        color:#da4453;
      }
      </style>
  </defs>
  <path 
     style="fill:currentColor;fill-opacity:1;stroke:none" 
     d="M 3 5 C 3 5 7.1338219 19.01731 7.1386719 19 C 7.1495449 19.0068 7.4919426 19.002 7.7480469 19 C 7.9105746 18.9987 7.9468692 19.0013 8.1347656 19 C 8.5008692 19.0032 8.9500334 19.0092 8.9648438 19 C 8.9698438 19.0173 13.103516 5 13.103516 5 L 12 5 L 8.2792969 17 L 7.8164062 17 C 7.8164062 17 4.1028803 4.9995973 4.1035156 5 L 3 5 z M 14.378906 5 L 10.042969 18.863281 L 10 19 L 11.136719 19 L 12.701172 14 L 17.5625 14 L 17.882812 14 L 19.044922 14 L 15.527344 5 L 14.378906 5 z M 14.888672 7 L 15.146484 7 L 17.492188 13 L 13.011719 13 L 14.888672 7 z "
     class="ColorScheme-Text"/>
  <path
     style="fill:currentColor;fill-opacity:1;stroke:none" 
     d="M 15.990234 15 L 15 15.990234 L 17.009766 18 L 15 20.009766 L 15.990234 21 L 18 18.990234 L 20.009766 21 L 21 20.009766 L 18.990234 18 L 21 15.990234 L 20.009766 15 L 18 17.009766 L 15.990234 15 z "
     class="ColorScheme-NegativeText"
     />
</svg>

<?xml version="1.0" encoding="UTF-8"?>
<svg viewBox="0 0 24 24" xmlns="http://www.w3.org/2000/svg">
 <defs id="defs3051">
  <style id="current-color-scheme" type="text/css">.ColorScheme-Text {
        color:#363636;
      }
      .ColorScheme-NegativeText {
        color:#da4453;
      }</style>
 </defs>
 <path class="ColorScheme-Text" d="m3 5s4.1338 14.017 4.1387 14c0.010873 0.0068 0.35327 2e-3 0.60938 0 0.16253-0.0013 0.19882 0.0013 0.38672 0 0.3661 0.0032 0.81527 0.0092 0.83008 0 5e-3 0.0173 4.1387-14 4.1387-14h-1.1035l-3.7207 12h-0.46289s-3.7135-12-3.7129-12h-1.1035zm11.379 0-4.3359 13.863-0.042969 0.13672h1.1367l1.5645-5h4.8613 0.32031 1.1621l-3.5176-9h-1.1484zm0.50977 2h0.25781l2.3457 6h-4.4805l1.877-6z" fill="currentColor"/>
 <path class="ColorScheme-NegativeText" d="m15.99 15-0.99023 0.99023 2.0098 2.0098-2.0098 2.0098 0.99023 0.99023 2.0098-2.0098 2.0098 2.0098 0.99023-0.99023-2.0098-2.0098 2.0098-2.0098-0.99023-0.99023-2.0098 2.0098-2.0098-2.0098z" fill="currentColor"/>
</svg>
